assets/images/arrow_up_black.svg

<svg fill="none" height="40" viewBox="0 0 40 40" width="40" xmlns="http://www.w3.org/2000/svg"><g clip-rule="evenodd" fill="#000" fill-rule="evenodd"><path d="m11.6153 19.635c-.1164-.1161-.2088-.2541-.2718-.4059-.063-.1519-.0955-.3147-.0955-.4791s.0325-.3272.0955-.4791c.063-.1518.1554-.2898.2718-.4059l7.5-7.5c.1161-.1164.254-.2088.4059-.2718s.3147-.09543.4791-.09543.3272.03243.4791.09543c.1518.063.2898.1554.4059.2718l7.5 7.5c.2347.2347.3666.5531.3666.885s-.1319.6503-.3666.885-.5531.3666-.885.3666c-.332 0-.6503-.1319-.885-.3666l-6.615-6.6175-6.615 6.6175c-.1161.1164-.2541.2088-.4059.2718-.1519.063-.3147.0954-.4791.0954s-.3272-.0324-.4791-.0954-.2898-.1554-.4059-.2718z"/><path d="m20 30c-.3315 0-.6495-.1317-.8839-.3661s-.3661-.5524-.3661-.8839v-16.25c0-.3315.1317-.6495.3661-.8839s.5524-.3661.8839-.3661.6495.1317.8839.3661.3661.5524.3661.8839v16.25c0 .3315-.1317.6495-.3661.8839s-.5524.3661-.8839.3661z"/></g></svg>

<svg width="40" height="40" viewBox="0 0 40 40" fill="none" xmlns="http://www.w3.org/2000/svg">
<path fill-rule="evenodd" clip-rule="evenodd" d="M11.6153 19.635C11.4989 19.5189 11.4065 19.3809 11.3435 19.2291C11.2805 19.0772 11.248 18.9144 11.248 18.75C11.248 18.5856 11.2805 18.4228 11.3435 18.2709C11.4065 18.1191 11.4989 17.9811 11.6153 17.865L19.1153 10.365C19.2314 10.2486 19.3693 10.1562 19.5212 10.0932C19.6731 10.0302 19.8359 9.99777 20.0003 9.99777C20.1647 9.99777 20.3275 10.0302 20.4794 10.0932C20.6312 10.1562 20.7692 10.2486 20.8853 10.365L28.3853 17.865C28.62 18.0997 28.7519 18.4181 28.7519 18.75C28.7519 19.0819 28.62 19.4003 28.3853 19.635C28.1506 19.8697 27.8322 20.0016 27.5003 20.0016C27.1683 20.0016 26.85 19.8697 26.6153 19.635L20.0003 13.0175L13.3853 19.635C13.2692 19.7514 13.1312 19.8438 12.9794 19.9068C12.8275 19.9698 12.6647 20.0022 12.5003 20.0022C12.3359 20.0022 12.1731 19.9698 12.0212 19.9068C11.8693 19.8438 11.7314 19.7514 11.6153 19.635Z" fill="black"/>
<path fill-rule="evenodd" clip-rule="evenodd" d="M20 30C19.6685 30 19.3505 29.8683 19.1161 29.6339C18.8817 29.3995 18.75 29.0815 18.75 28.75L18.75 12.5C18.75 12.1685 18.8817 11.8505 19.1161 11.6161C19.3505 11.3817 19.6685 11.25 20 11.25C20.3315 11.25 20.6495 11.3817 20.8839 11.6161C21.1183 11.8505 21.25 12.1685 21.25 12.5L21.25 28.75C21.25 29.0815 21.1183 29.3995 20.8839 29.6339C20.6495 29.8683 20.3315 30 20 30Z" fill="black"/>
</svg>
